svg/delete.svg

<svg width="24" height="24" viewBox="0 0 24 24" fill="none" xmlns="http://www.w3.org/2000/svg">
<path d="M7 4C7 2.89543 7.89543 2 9 2H15C16.1046 2 17 2.89543 17 4V6H18.9897C18.9959 5.99994 19.0021 5.99994 19.0083 6H21C21.5523 6 22 6.44772 22 7C22 7.55228 21.5523 8 21 8H19.9311L19.0638 20.1425C18.989 21.1891 18.1182 22 17.0689 22H6.93112C5.88184 22 5.01096 21.1891 4.9362 20.1425L4.06888 8H3C2.44772 8 2 7.55228 2 7C2 6.44772 2.44772 6 3 6H4.99174C4.99795 5.99994 5.00414 5.99994 5.01032 6H7V4ZM9 6H15V4H9V6ZM6.07398 8L6.93112 20H17.0689L17.926 8H6.07398ZM10 10C10.5523 10 11 10.4477 11 11V17C11 17.5523 10.5523 18 10 18C9.44772 18 9 17.5523 9 17V11C9 10.4477 9.44772 10 10 10ZM14 10C14.5523 10 15 10.4477 15 11V17C15 17.5523 14.5523 18 14 18C13.4477 18 13 17.5523 13 17V11C13 10.4477 13.4477 10 14 10Z" fill="#0D0D0D"/>
</svg>

<svg width="24" height="24" fill="none" xmlns="http://www.w3.org/2000/svg"><path d="M7 4a2 2 0 012-2h6a2 2 0 012 2v2h4a1 1 0 110 2h-1.069l-.867 12.142A2 2 0 0117.069 22H6.93a2 2 0 01-1.995-1.858L4.07 8H3a1 1 0 010-2h4V4zm2 2h6V4H9v2zM6.074 8l.857 12H17.07l.857-12H6.074zM10 10a1 1 0 011 1v6a1 1 0 11-2 0v-6a1 1 0 011-1zm4 0a1 1 0 011 1v6a1 1 0 11-2 0v-6a1 1 0 011-1z" fill="#0D0D0D"/></svg>
